X:1
T:Title
%%score { ( 1 3 5 ) | ( 2 4 ) }
L:1/8
Q:1/4=126
M:4/4
K:Bb
V:1 treble nm="Grand Piano"
V:3 treble 
V:5 treble 
V:2 bass 
V:4 bass 
V:1
 [Bdfb]2 [DB]2 [DB]2 [DB]2 |[M:3/4] [DB]2 [DB]2 [DB]2 |[M:1/4] D>E | %3
w: Chas.~H.~Gabriel * * *|||
[M:4/4][K:bass] z2 [DF]4[K:treble] z2 | z2 [=DF]4 z2 | z2 [Dc]4 z2 | z2 [EA]4[K:bass] z2 | %7
w: ||||
 z2 [CE]4[K:treble] z2 |[M:3/4] z2 [Ec]4 |[M:1/4] dA |[M:4/4] [DB]2 [Fc]2 [DG]2 [=EA]2 | %11
w: ||||
[M:3/4] [B,G]>F z2 F,2 |[M:1/4] d>d |[M:4/4] [Ec]2 z2 z d [Ac]>[GB] | %14
w: |||
 z2 [FA]4[K:bass][K:treble] z2 | [GB]2 z2 z c [GB]>[FA] | [EG]>[DF] z2 F,2 d>d | %17
w: |||
 [^Fd]2 z2 z c [GB]>A | z2 [GB]4 z2 | [GB]2 e2 d2 c2 |[M:3/4] [DB]6[K:bass] |] %21
w: ||||
V:2
 [B,,B,]2 [B,,F,]2 [B,,F,]2 [B,,F,]2 |[M:3/4] [B,,F,]2 [B,,F,]2 [B,,F,]2 |[M:1/4] B,>C | %3
[M:4/4] B,,2 F,,2 B,,2 D>B, | [B,,F,]2 [F,,F,]2 B,,2 DD | [B,,F,]2 [F,,F,]2 B,,2 DD | %6
 [C,F,]2 [F,,F,]2 C,2 A,>B, | A,,2 F,,2 A,,2 E>E |[M:3/4] [A,,F,]2 [F,,F,]2 A,,2 | %9
[M:1/4][K:treble] FE |[M:4/4][K:bass] [G,,G,]2 [A,,A,]2 [B,,B,]2 [C,C]2 | %11
[M:3/4] z z/ A,/ C,2 F,,2 |[M:1/4][K:treble] F>F | %13
[M:4/4][K:bass] [B,,F,]2 [F,,F,]2 z[K:treble] B[K:bass] [F,,F,]2 | [C,F,]2 [F,,F,]2 z2 [F,,F,]2 | %15
 [C,F,]2 [F,,F,]2 z A [F,,F,]2 | [B,,F,]2 [F,,F,]2 B,,2[K:treble] F>F | %17
 [D,C]2 [D,C]2 z A z z/[K:treble] ^F/ | G>^F G,2 G,2[K:bass] F,2 | z2[K:treble] G2 F2 E2 | %20
[M:3/4][K:bass] B,,2 B,,2 B,,2 |] %21
V:3
 x8 |[M:3/4] x6 |[M:1/4] x2 |[M:4/4][K:bass] [F,DF]2 F,2 F,2[K:treble] G>D | %4
 [DF]>[_D=E] z2 F,2 GA | [DB]2 z2 F,2 BG | [EB]>[EA] z2[K:bass] F,2 C>D | %7
 [F,CE]2 F,2 F,2[K:treble] F>A |[M:3/4] [Ec]>[D=B] z2 F,2 |[M:1/4] x2 |[M:4/4] x8 | %11
[M:3/4] z2 [A,F]4 |[M:1/4] x2 |[M:4/4] z2 [DB]4 z2 | %14
 [GB]>[FA] z2[K:bass] [C,F,]2[K:treble] [Ac]>[EG] | z2 [FA]4 z2 | z2 [DF]4 z2 | z2 [^FA]4 z2 | %18
 B>A D2 D2 [D_AB]2 | x8 |[M:3/4] B,2[K:bass] F,2 F,2 |] %21
V:4
 x8 |[M:3/4] x6 |[M:1/4] x2 |[M:4/4] x8 | x8 | x8 | x8 | x8 |[M:3/4] x6 |[M:1/4][K:treble] x2 | %10
[M:4/4][K:bass] x8 |[M:3/4] [F,,F,]2 z2 z2 |[M:1/4][K:treble] x2 | %13
[M:4/4][K:bass] z4 B,,2[K:treble][K:bass] z2 | x8 | z4 C,2 z2 | x6[K:treble] x2 | %17
 z4 D,2 [D,D]2[K:treble] | [G,D]2 z2 z4[K:bass] | [E,B,]4[K:treble] [F,A,]4 |[M:3/4][K:bass] x6 |] %21
V:5
 x8 |[M:3/4] x6 |[M:1/4] x2 |[M:4/4][K:bass] x6[K:treble] x2 | x8 | x8 | x4[K:bass] x4 | %7
 x6[K:treble] x2 |[M:3/4] x6 |[M:1/4] x2 |[M:4/4] x8 |[M:3/4] x6 |[M:1/4] x2 |[M:4/4] z4 F,2 z2 | %14
 x4[K:bass] x2[K:treble] x2 | z4 F,2 z2 | x8 | z4 D2 z2 | x8 | x8 |[M:3/4] x2[K:bass] x4 |] %21

